X:60
T:Walsh's Polka
R:polka
Z:id:hn-polka-60
M:2/4
L:1/8
K:A
Ac ef | ec c/d/c/B/ | Ac ef | e2 ea |
Ac ef | ec c/d/c/B/ | AF FE |1 A2 AB :|2 A2 Ac/e/ ||
|: fe c/d/c/B/ | AF FE | A>B Ac | e2 ec/e/ |
fe c/d/c/B/ | AF FE | A>B AF |1 A2 Ac/e/ :|2 A2 AB ||
P:variations
|: A>c ef | ec dB | Ac ef | e2 e2 |
Ac ef | ec d>B | AF FE |1 A2 AB :|2 A2 Ac/e/ ||
|: fe cB | AF FE | A>B Ac | e2 ec/e/ |
fe cB | AF FE | A>B AE |1 A2 Ac/e/ :|2 A2 AB ||

